modules/micon/icons/HalfDullSound.svg

<svg xmlns="http://www.w3.org/2000/svg" viewBox="0 0 433 1024"><path d="M369 337.5q64 63 64 152 0 44.5-17 84.25t-46.5 69.25-68.75 46.75-84.25 17.25-84.25-17.25-68.75-46.75-46.5-69.25-17-84.25q0-45 17-84t46.25-68 68.25-45.75 83.5-16.75q90 0 154 62.5zm-66.5 241q36.5-37 36.5-89 0-25.5-9.75-47.75t-26.25-39-38.75-26.5-47.75-9.75-47.75 9.75-39 26.5-26.25 39-9.5 47.75q0 26 9.5 49t25.75 40.25 38.25 27.25 47.5 10q50.5 0 87.5-37.5z"/></svg>

<svg xmlns="http://www.w3.org/2000/svg" viewBox="0 0 433 1024"><path d="M369 337.5q64 63 64 152 0 44.5-17 84.25T369.5 643t-68.75 46.75T216.5 707t-84.25-17.25T63.5 643 17 573.75 0 489.5q0-45 17-84t46.25-68 68.25-45.75T215 275q90 0 154 62.5zm-66.5 241q36.5-37 36.5-89 0-25.5-9.75-47.75t-26.25-39-38.75-26.5-47.75-9.75-47.75 9.75-39 26.5-26.25 39T94 489.5q0 26 9.5 49t25.75 40.25T167.5 606t47.5 10q50.5 0 87.5-37.5z"/></svg>
